X: 1
M: 4/4 % Meter / Taktart
L: 1/8 % Standard Noten Länge
K: F % Tonart: G, beendet den Header
C| F2 CC| G6 B2 | A2 GF G FE | F2 F2 C2 C2 |  F6 C2 | G6 B2 |  A2 GF G4 |  !fermata!F6 c2 | A6 cc |  B6 d2 |  c2 BA B2 AG |  A2 A2 F2 c2 | A6 c2 | B6 d2 | c2 BA B4 | !fermata!A6:|]
w: Wo zwei o-der drei in mei-nem* Na-men ver-sam-melt sind, da bin ich mit-ten un-ter* ih-nen. Wo zwei o-der drei in mei-nem* Na-men ver-sam-melt sind, da bin ich mit-ten un-ter* ih-nen.